X:4565
L:1/8
M:2/4
K:C
"C" E/E/E/E/ GG |"G7" FF D2 | F/F/F/F/ AA |"C" GG C2 | c/c/c/c/ cc |"Dm/F" BB A2 | 
"G7" G/G/G/G/ FB, |"C" CE C z ::[K:G]"G" B/A/G/F/"C" A/G/F/E/ |"G" D^C/D/ ED |"D7" CA B/A/G/A/ | 
"G" BA G2 |"G" B/A/G/F/"C" A/G/F/E/ |"G" D^C/D/ ED |"D7" CD/F/ BA |"G" GB G"_>Teil A" z :| 
[K:F]"F" AA"C7" GG |"F" FF"Am" EE |"Bb" DD D/F/E/D/ |"F" CA F2 |"Gm" BB"D7" AA |"Gm" GG"G7" FF | 
"C7" E/F/G/A/ BG |"F" FA"C7" G2 |"F" AA"C7" GG |"F" FF EE |"Bb" D/^C/D/E/ F/E/F/G/ |"F" Ad c2 | 
"Gm" B/B/B"C7" G^G |"F" A/G/F/D/ CC |"C7" C/D/E/F/ Gc |"F" FA F z |]

